X:1
T:Cinq Mélodies, Op.58
T:Mandoline
T:1. Mandoline
T:Gabriel Fauré
T:Paul Verlaine
T:Cinq Mélodies, Op.58
T:OpenScore (CC0)
T:OpenScore (CC0)
T:OpenScore (CC0)
T:OpenScore (CC0)
T:OpenScore (CC0)
T:OpenScore (CC0)
T:OpenScore (CC0)
T:OpenScore (CC0)
T:OpenScore (CC0)
C:Gabriel Fauré
Z:Paul Verlaine
Z:OpenScore (CC0)
%%score 1 { ( 2 4 ) | ( 3 5 ) }
L:1/8
Q:1/4=84
M:4/4
K:G
V:1 treble nm="                  ."
V:2 treble nm="Piano"
V:4 treble 
V:3 bass 
V:5 bass 
V:1
"^Allegretto moderato." z8 | z8 |"^dolce"!p! G A B2- B B (3(cB) c | d4 d2- d z | %4
w: ||Les don- neurs _ de sé- * ré-|na- des _|
 G A B2- B c (3(dc) B | e4 B2 z B | e B (3B A B c2 A c | (3(BA) B G2- (GB) A G | %8
w: Et les bel- * les é- * cou-|teu- ses É-|chan- gent des pro- pos fa- des, Sous|les * ra- mu- * * res chan-|
 (F/!<(!^G/^A- A/B/!<)!^c-!>(! c/^d/c/B/ A/B/A/G/ | ^A/!>)!^G/F-) F2- F2- F z | %10
w: \- teu- * * * * * * * * * * * * *|* * ses _ _ _|
 G A B2- B B (3(cB) c | d4- (dc) B2 | z2 B d c G A c | B2 G3 A B G |!<(! A2 B G A2 B!<)! ^c | %15
w: C'est Tir- cis _ et c'est * A-|min- * * te|Et~ c'est~ l'é- ter- nel Cli-|tan- dre Et c'est Da-|\- mis qui, pour main- te cru-|
!mf! d2 ^A3!>(! B ^c =A!>)! | (F/!<(!G/A- A/B/!<)!^c-!>(! c/d/c/B/ c/B/A/G/!>)! | %17
w: el- le, Fit maint vers|ten- * * * * * * * * * * * * *|
 A/G/F-) F2- F2- F z |!mf! d2 e d (3=c B A c2 | B2 A G (3F E F D2 | d2 c d (3_B A G A2- | %21
w: * * dre _ _ _|Leurs cour- tes ves- tes de soie,|Leurs lon- gues ro- bes à queues,~|Leur é- lé- gan- ce, leur joie|
 A z"^dim." A _B =F3 F |!p! =F3 F F4- | F z!p! d3/2 d/ c c _B B | A3/2 A/ _B B A3/2 A/ G3/2 G/ | %25
w: _ Et leurs mol- les|om- bres bleues|_ Tour- bil- lon- nent dans l'ex-|\- ta- se D'u- ne lu- ne rose et|
 =F4 F4 | z2!p! _A A G G =F3/2 F/ | E3/2 E/ =F F E E _E3/2 E/ | D4 D2 z2 |!mf! G A B3 B (3(cB) c | %30
w: gri- se,|Et la man- do- li- ne|ja- se Par- mi les fris- sons de|bri- se.|Les don- neurs de sé- * ré-|
 d4 d2- d z | G A B2- B c (3(dc) B | e2 B2- B z z G |"^dim." B2 G2- G B A G | F2 F2 z!pp! ^E ^G B | %35
w: \- na- des _|Et les bel- * les é- * cou-|\- teu- ses _ É-|chan- gent _ des pro- pos|fa- des Sous les ra-|
"^poco rit."[Q:1/4=80] F4[Q:1/4=74] F3 F[Q:1/4=78][Q:1/4=70] |"^a tempo"[Q:1/4=84] B8 | B4- B2 z2 | %38
w: mu- res chan-|\- teu-|ses. _|
 z8 |] %39
w: |
V:2
!p![I:staff +1] .G,"^leggiero"[I:staff -1].[B,DA][I:staff +1] .F,/.G,/[I:staff -1].B,/.[DB]/[I:staff +1] .[E,G,A,][I:staff -1].[CDc][I:staff +1] .[D,F,]/.B,/[I:staff -1].D/.d/ | %1
[I:staff +1] .G,[I:staff -1].[B,DA][I:staff +1] .F,/.G,/[I:staff -1].B,/.[DB]/[I:staff +1] .[E,G,A,][I:staff -1].[CDc][I:staff +1] .[D,F,]/.B,/[I:staff -1].D/.d/ | %2
[I:staff +1] .G,[I:staff -1].[B,D][I:staff +1] .F,/.G,/[I:staff -1].B,/.D/[I:staff +1] .[E,G,][I:staff -1].[B,D][I:staff +1] .[D,G,]/.A,/[I:staff -1].C/.D/ | %3
[I:staff +1] .G,[I:staff -1].[B,DA][I:staff +1] .F,/.G,/[I:staff -1].B,/.[DB]/[I:staff +1] .[E,G,A,][I:staff -1].[CDc][I:staff +1] .[D,F,]/.B,/[I:staff -1].D/.d/ | %4
[I:staff +1] .G,[I:staff -1].[B,D][I:staff +1] .F,/.G,/[I:staff -1].B,/.D/[I:staff +1] .[E,G,A,][I:staff -1].[CD][I:staff +1] .[D,F,]/.B,/[I:staff -1].D/.d/ | %5
[I:staff +1] .[C,G,B,][I:staff -1].[EGe][I:staff +1] .D,/.G,/[I:staff -1].B,/.E/[I:staff +1] .[C,G,B,][I:staff -1].[EGe][I:staff +1] .D,/.G,/[I:staff -1].B,/.E/ | %6
[I:staff +1] .[C,G,B,][I:staff -1].[EGe][I:staff +1] .G,/.B,/[I:staff -1].D/.[^FB]/[I:staff +1] .[A,,E,G,][I:staff -1].[CEc][I:staff +1] .D,/.=F,/[I:staff -1].C/.[=FA]/ | %7
[I:staff +1] .[G,,D,^F,][I:staff -1].[B,DB][I:staff +1] .A,,/.E,/[I:staff -1].G,/.[CG]/[I:staff +1] .[G,,D,F,][I:staff -1].[B,DB][I:staff +1] .A,,/.E,/[I:staff -1].G,/.[^CG]/ | %8
 z[I:staff +1] (F,/[I:staff -1][B,^DF]/) z (B,/[DF]/) z (B,/[D^E]/) z (B,/[D^G]/) | %9
!<(! F/^G/^A- A/^B/!<)!^^c-!>(! c/^d/^e/f/ ^g/^a/b/!>)!^c'/ | %10
[I:staff +1] .G,,[I:staff -1].[B,=D][I:staff +1] .F,/.G,/[I:staff -1].B,/.D/[I:staff +1] .[E,G,][I:staff -1].[B,D][I:staff +1] .[D,G,]/.A,/[I:staff -1].C/.D/ | %11
[I:staff +1] .G,[I:staff -1].[B,D][I:staff +1] .F,/.G,/[I:staff -1].B,/.D/[I:staff +1] .[E,G,A,][I:staff -1].[CD][I:staff +1] .[D,F,]/.B,/[I:staff -1].D/.F/ | %12
 (e2 B2) x4 | %13
[I:staff +1] !arpeggio!.[=F,,E,G,][I:staff -1].[EGB][I:staff +1] .=F,/.G,/[I:staff -1].B,/.[DG]/[I:staff +1] .[E,G,][I:staff -1].[CGA][I:staff +1] .D,/.^F,/[I:staff -1].B,/.[GB]/ | %14
!<(![I:staff +1] .[^C,E,][I:staff -1].[A,GA][I:staff +1] .F,/.G,/[I:staff -1].B,/.[DGB]/[I:staff +1] .[E,G,][I:staff -1].[A,^CA][I:staff +1] .G,/.A,/!<)![I:staff -1].C/.[EA^c]/ | %15
!>(![I:staff +1] .[F,^A,][I:staff -1].[DF^Ad][I:staff +1] .[F,,D,]/.F,/[I:staff -1].^A,/.[DFA]/[I:staff +1] .^G,,[I:staff -1].[B,DFB][I:staff +1] .[=A,,F,]/.=A,/[I:staff -1].^C/!>)!.[F=A^c]/ | %16
 z[I:staff +1] (F,/[I:staff -1][A,DF]/) z[I:staff +1] (F,/[I:staff -1][A,^CF]/) z[I:staff +1] (F,/[I:staff -1][B,DF]/) z[I:staff +1] (G,/[I:staff -1][A,CG]/) | %17
!<(! (A/B/^c- c/d/e- e/^e/f/g/ ^g/a/b/!<)!^c'/ | %18
!mf! d') z x2[I:staff +1] .[A,,=F,A,][I:staff -1].[=C=F=c][I:staff +1] .[=F,,E,]/.A,/[I:staff -1].C/.[Ec]/ | %19
 x2 x2[I:staff +1] .[G,,E,G,][I:staff -1].[CEc][I:staff +1] .[A,,=D,]/.^F,/[I:staff -1].C/.[=Dc]/ | %20
 x2 C/D/=F/d/[I:staff +1] .[_E,G,][I:staff -1].[_B,D_B][I:staff +1] .=E,/.G,/[I:staff -1].A,/.[^CA]/ | %21
!>(![I:staff +1] .[=F,,D,=F,][I:staff -1].[A,DA][I:staff +1] .[G,,D,]/.F,/[I:staff -1]._B,/.[D_B]/[I:staff +1] .^G,,[I:staff -1].[=B,D=F][I:staff +1] .A,,/.F,/[I:staff -1].=C/!>)!.[_EF]/ | %22
!pp! z2 z/ (=f/_B/=F/) z/ (_e/B/F/) z/ (d/B/F/) | %23
 z/ (c/_B/=F/) z/ (d/B/F/) z/ (c/F/D/) z/ (B/F/D/) | %24
 z/ (A/=F/D/) z/ (_B/F/D/) z/ (A/F/D/) z/ (G/D/_B,/) | (=F/G/_A- A/_B/c- c/d/_e/=f/ e/d/c/B/) | %26
!pp! (_A/G/=F/_E/ D/)(A/D/_B,/) z/ (G/D/B,/) z/ (F/D/B,/) | %27
 z/ (E/D/_B,/) z/ (=F/D/B,/) z/ (E/D/B,/) z/ (_E/B,/G,/) | %28
!<(! (D/=E/^F- F/G/!<)!A-!>(! A/B/c/d/ c/B/A/!>)!G/ | %29
 (F/)E/D)[I:staff +1] .F,/.G,/[I:staff -1].B/.[B,D]/[I:staff +1] .[E,G,][I:staff -1].[B,D][I:staff +1] .[D,G,]/.A,/[I:staff -1].C/.G/ | %30
!<(! (D/E/F- F/G/!<)!A-!>(! A/B/c/d/ c/B/A/!>)!G/ | %31
 (F/)E/D)[I:staff +1] .F,/.G,/[I:staff -1].B/.[B,D]/[I:staff +1] .[E,G,A,][I:staff -1].[CDc][I:staff +1] .[D,F,]/.B,/[I:staff -1].D/.d/ | %32
[I:staff +1] .[C,G,B,][I:staff -1].[EGe][I:staff +1] .[D,G,]/.B,/[I:staff -1].D/.[FB]/[I:staff +1] .[G,,D,F,][I:staff -1].[B,DB][I:staff +1] .A,,/.E,/[I:staff -1].G,/.[CG]/ | %33
[I:staff +1] .[G,,D,F,][I:staff -1].[B,DB][I:staff +1] .A,,/.E,/[I:staff -1].G,/.[CG]/[I:staff +1] .[G,,D,F,][I:staff -1].[B,DB][I:staff +1] .A,,/.E,/[I:staff -1].G,/.[^CG]/ | %34
 z[I:staff +1] (F,/[I:staff -1][B,^DF]/) z[I:staff +1] (F,/[I:staff -1][B,DF]/) z (B,/[D^E]/) z (B,/[D^G]/) | %35
!pp! F/^G/^A- A/^B/^^c- c/^d/^e/f/ ^g/^a/=b/^c'/ | %36
"_a tempo"[I:staff +1] .G,,[I:staff -1].[B,=D=A][I:staff +1] .F,/.G,/[I:staff -1].B,/.[DB]/[I:staff +1] .[E,G,][I:staff -1].[B,D][I:staff +1] .[D,F,]/.B,/[I:staff -1].D/.d/ | %37
[I:staff +1] .G,,[I:staff -1].[B,DA][I:staff +1] .F,/.G,/[I:staff -1].B,/.[DB]/[I:staff +1] .[E,G,][I:staff -1].[B,D][I:staff +1] .[D,F,]/.B,/[I:staff -1].D/.d/ | %38
 z2 .D z !arpeggio!.[Gdg] z z2 |] %39
V:3
 x8 | x8 | x8 | x8 | x8 | x8 | x8 | x8 | B,,2 ^D,2 ^G,2 ^E,2 | %9
!ped! (F,^D/F/)!ped-up!!ped! (^A,F/^A/)!ped-up!!ped! (^D,F,/A,/)!ped-up!!ped! (B,,D,/F,/)!ped-up! | %10
 x8 | x8 | x8 | x8 | x8 | x8 | D,,2 F,,2 ^G,,2 A,,2 | %17
!ped! (D,A,/F/)!ped-up!!ped! (F,A,/E/)!ped-up!!ped! (A,,F,/D/)!ped-up!!ped! (D,F,/^C/)!ped-up! | %18
!ped! (^G,,/E,/B,/[I:staff -1] D/ E/d/E/D/)!ped-up![I:staff +1] x4 | %19
!ped! (^F,,/B,,/A,/[I:staff -1] B,/ ^D/A/B/B,/)!ped-up![I:staff +1] x4 | %20
!ped! _B,,/G,/_B,/D/!ped-up!!ped! _A,2!ped-up! x4 | x8 | %22
!ped! (_B,,/=F,/_B,/D/!ped-up!!ped! =F2!ped-up!!ped! _E2!ped-up!!ped! D2!ped-up! | %23
!ped! C2!ped-up!!ped! D2!ped-up!!ped! C2!ped-up!!ped! _B,2!ped-up! | %24
!ped! A,2!ped-up!!ped! _B,2!ped-up!!ped! A,2!ped-up!!ped! G,2)!ped-up! | %25
!ped! (_B,,=F,/D/)!ped-up!!ped! (F,_A,/D/)!ped-up!!ped! (A,_B,/D/)!ped-up!!ped! (F,A,/D/)!ped-up! | %26
!ped! _B,, z!ped-up!!ped! (_A,2!ped-up!!ped! G,2!ped-up!!ped! =F,2!ped-up! | %27
!ped! E,2!ped-up!!ped! =F,2!ped-up!!ped! E,2!ped-up!!ped! _E,2)!ped-up! | %28
!ped! (G,,D,/=B,/)!ped-up!!ped! (D,G,/B,/)!ped-up!!ped! ([D,E,]G,/C/)!ped-up!!ped! ([D,F,]C/D/)!ped-up! | %29
 G,,/B,/ z x6 | %30
!ped! (G,,D,/B,/)!ped-up!!ped! (D,G,/B,/)!ped-up!!ped! ([D,E,]G,/C/)!ped-up!!ped! ([D,F,]C/D/)!ped-up! | %31
 G,,/B,/ z x6 | x8 | x8 | B,,2 ^D,2 ^G,2 ^E,2 | %35
!ped! (F,^D/F/)!ped-up!!ped! (^A,F/^A/)!ped-up!!ped! (^D,F,/A,/)!ped-up!!ped! (B,,D,/F,/)!ped-up! | %36
 x8 |!ppp! x8 |!ped! .G,, z z2 !arpeggio!.[G,,D,B,] z!ped-up! z2 |] %39
V:4
 x8 | x8 | x8 | x8 | x8 | x8 | x8 | x8 | x8 | x8 | [b=d'] z x6 | (GA B2- Bc (3dcB) | %12
[I:staff +1] .[C,G,B,][I:staff -1].[EG][I:staff +1] .G,/.B,/[I:staff -1].D/.F/[I:staff +1] .[A,,E,G,][I:staff -1].[CEc][I:staff +1] .D,/.=F,/[I:staff -1].C/.[=FA]/ | %13
 x8 | x8 | x8 | x8 | x8 | x8 | x8 | x8 | x8 | x5/2 =f3/2 x/ _e3/2 x/ d3/2 | %23
 x/ c3/2 x/ d3/2 x/ c3/2 x/ _B3/2 | x/ A3/2 x/ _B3/2 x/ A3/2 x/ G3/2 | x8 | x9/2 G3/2 x/ =F3/2 | %27
 x/ E3/2 x/ =F3/2 x/ E3/2 x/ _E3/2 | x8 | GA z x5 | x8 | GA z x5 | x8 | x8 | x8 | x8 | %36
 [b=d'] z x6 | x8 | x8 |] %39
V:5
 x8 | x8 | x8 | x8 | x8 | x8 | x8 | x8 | x8 | x8 | x8 | x8 | x8 | x8 | x8 | x8 | x8 | %17
 D,2 F,2 A,,2 D,2 | x8 | x8 | x8 | x8 | x8 | x8 | x8 | x8 | x8 | x8 | x8 | x8 | x8 | x8 | x8 | x8 | %34
 x8 | x8 | x8 | x8 | x8 |] %39

